X: 100459
T: CAPER FEY REEL
R: reel
B: K\"ohler's Violin Repository, v.3, 1885 p.288 #1
F: http://www.archive.org/details/klersviolinrepos03rugg
Z: 2011 John Chambers <jc:trillian.mit.edu>
M: C|
L: 1/8
K: C
uG |\
c2ed ~c2Gc | c2GF (EC)CE | d<d(f>e) ~d2(AB/^c/) | ~d2AG FDDE |
c2ed ~c2(GA/B/) |~c2GF ECCE | (DE)FG (AB)^cA | "#"~d2(AG) FDD ||
(ug/f/) |\
(ec)(gc) (ac)(gc) | (ec)(gc) {/f}edce | (fd)(ad) (bd)(af) | defg (a/g/f/e/) d(g/f/) |
(ec)(gc) (ac)(gc) | GA cd ecc (f/g/) | afge fde^c | d2(AG) FDD "^D.C."|]

%%sep 2 1 500

